FINK
CUT[O ICH HABE DEINE STIMME]
REG[Europa, Mitteleuropa, Deutschland]
KEY[F0937  16  E 4/4]
MEL[5_.5  5_3_+3_+2_+1_7_6_5_  56344__0__
    4_.4  4_2_+2_+1_7_6_5_4_  4__3__0__
    1_.1  2_-7_1__4_2_3__  6__5__
    +1__.+1_  6+17+176543__2__  1___0__ //] >>
FCT[Liebes - Lied]
